!!!OTL: 353b. Soldatenlied (1813 und 1870).
!!!ARE: Europa, Mitteleuropa, Deutschland, Schlesien
!!!SCT: E0353
!!!TXL: @@DE
!!!YEM: Copyright 1995, estate of Helmut Schaffrath.
**kern	**text
*ICvox	*
*M4/4	*
*met(c)	*
*k[b-]	*
*F:	*
!LO:TX:a:t=Marſchmäßig.	!
!LO:TX:a:t=Soldaten-Melodie aus Schleſien (1865), ebenſo in Heſſen-Darmſtadt, Heſſen-Naſſau, Wetterau, Schleswig rc 1880-90.	!
{8fL	Es
8gJ	.
=1	=1
4a	kann
8a	ja
8a	nicht
8aL	im-
8ccJ	.
8b-	-mer
8a	ſo
=2	=2
8ccL	blei-
8gJ	.
4g	-ben,
4r}	.
{8gL	hier
8aJ	.
=3	=3
4b-	un-
8b-	-ter
8b-	dem
4dd	wech-
8cc	-ſeln-
8b-	-den
=4	=4
2cc	Mond
4r}	.
{4f	der
=5	=5
4dd	Krieg
8dd	muß
8dd	den
4ff	Frie-
8ee	-den
8dd	ver-
=6	=6
8ddL	-trei-
8ccJ	.
4cc	-ben,
4r}	.
{8ccL	im
8ffJ	.
=7	=7
4ff	Krie-
8a	-ge
8cc	wird
4cc	kei-
8b-/	-ner
8g	ver-
=8	=8
2f	-ſchont.
4r}	.
{4f	der
=9	=9
4dd	Krieg
8dd	muß
8dd	den
4ff	Frie-
8ee	-den
8dd	ver-
=10	=10
8ddL	-trei-
8ccJ	.
4cc	-ben,
4r}	.
{8ccL	im
8ffJ	.
=11	=11
4ff	Krie-
8a	-ge
8cc	wird
4cc	kei-
8b-/	-ner
8g	ver-
=12	=12
2f	-ſchont.
4r}	.
==	==
!!!AGN: historisches Lied, Krieg, Soldaten (1813 und 1870)
!!!ONB: ESAC (Essen Associative Code) Database: ERK1
!!!AMT: simple quadruple
!!!AIN: vox
!!!EED: Helmut Schaffrath
!!!EEV: 1.0
!!!GTL: Historische Lieder
!!!URL-scan: https://rosdok.uni-rostock.de/mcrviewer/recordIdentifier/rosdok_ppn745177662/iview2/phys_0169.iview2?x=-511.385789653207&y=798.345233732136&scale=0.48104763951911705&rotation=0&layout=singlePageLayout
!!!ENC: Anna Maria Matuszewska
!!!EEV: 2024/09/12
*-	*-
